build/system/KeyboardSolid.svg

<svg xmlns="http://www.w3.org/2000/svg" fill="none" viewBox="0 0 24 24" focusable="false"><path d="M0 0H24V24H0z"/><path fill="#74767B" fill-rule="evenodd" d="M6 5.59998C4.34315 5.59998 3 6.94312 3 8.59998L3 15.4C3 17.0568 4.34315 18.4 6 18.4L18 18.4C19.6569 18.4 21 17.0568 21 15.4L21 8.59998C21 6.94312 19.6569 5.59998 18 5.59998L6 5.59998ZM6.003 9.00804C6.003 8.64905 6.29402 8.35804 6.653 8.35804L7.34981 8.35804C7.70879 8.35804 7.99981 8.64905 7.99981 9.00804C7.99981 9.36702 7.70879 9.65804 7.34981 9.65804L6.653 9.65804C6.29402 9.65804 6.003 9.36702 6.003 9.00804ZM16.6502 8.35804C16.2912 8.35804 16.0002 8.64905 16.0002 9.00804C16.0002 9.36702 16.2912 9.65804 16.6502 9.65804L17.347 9.65804C17.706 9.65804 17.997 9.36702 17.997 9.00804C17.997 8.64905 17.706 8.35804 17.347 8.35804L16.6502 8.35804ZM9.14771 14.3581C8.78872 14.3581 8.49771 14.6491 8.49771 15.0081C8.49771 15.3671 8.78872 15.6581 9.14771 15.6581L14.8523 15.6581C15.2113 15.6581 15.5023 15.3671 15.5023 15.0081C15.5023 14.6491 15.2113 14.3581 14.8523 14.3581L9.14771 14.3581ZM9.9854 8.35804C9.62641 8.35804 9.3354 8.64905 9.3354 9.00804C9.3354 9.36702 9.62641 9.65804 9.9854 9.65804L10.6822 9.65804C11.0412 9.65804 11.3322 9.36702 11.3322 9.00804C11.3322 8.64905 11.0412 8.35804 10.6822 8.35804L9.9854 8.35804ZM12.6678 9.00804C12.6678 8.64905 12.9588 8.35804 13.3178 8.35804L14.0146 8.35804C14.3736 8.35804 14.6646 8.64905 14.6646 9.00804C14.6646 9.36702 14.3736 9.65804 14.0146 9.65804L13.3178 9.65804C12.9588 9.65804 12.6678 9.36702 12.6678 9.00804ZM16.6452 11.2621C16.2863 11.2621 15.9952 11.5532 15.9952 11.9121C15.9952 12.2711 16.2863 12.5621 16.6452 12.5621L17.342 12.5621C17.701 12.5621 17.992 12.2711 17.992 11.9121C17.992 11.5532 17.701 11.2621 17.342 11.2621L16.6452 11.2621ZM5.99805 11.9121C5.99805 11.5532 6.28906 11.2621 6.64805 11.2621L7.34485 11.2621C7.70384 11.2621 7.99485 11.5532 7.99485 11.9121C7.99485 12.2711 7.70384 12.5621 7.34485 12.5621L6.64805 12.5621C6.28906 12.5621 5.99805 12.2711 5.99805 11.9121ZM9.98044 11.2621C9.62146 11.2621 9.33044 11.5532 9.33044 11.9121C9.33044 12.2711 9.62146 12.5621 9.98044 12.5621L10.6772 12.5621C11.0362 12.5621 11.3272 12.2711 11.3272 11.9121C11.3272 11.5532 11.0362 11.2621 10.6772 11.2621L9.98044 11.2621ZM12.6628 11.9121C12.6628 11.5532 12.9539 11.2621 13.3128 11.2621L14.0096 11.2621C14.3686 11.2621 14.6596 11.5532 14.6596 11.9121C14.6596 12.2711 14.3686 12.5621 14.0096 12.5621L13.3128 12.5621C12.9539 12.5621 12.6628 12.2711 12.6628 11.9121Z"/></svg>

<svg xmlns="http://www.w3.org/2000/svg" fill="none" viewBox="0 0 24 24" focusable="false"><path fill="#74767B" fill-rule="evenodd" d="M6 5.59c-1.66 0-3 1.35-3 3v6.81c0 1.65 1.34 3 3 3h12c1.65 0 3-1.35 3-3V8.59c0-1.65-1.35-3-3-3zM6 9c0-.36.29-.65.65-.65h.69c.36 0 .66.29.66.65s-.3.65-.66.65h-.69C6.29 9.65 6 9.36 6 9m10.65-.65c-.36 0-.65.29-.65.65s.29.65.65.65h.69c.36 0 .65-.29.65-.65s-.29-.65-.65-.65zm-7.51 6c-.36 0-.65.29-.65.65s.29.65.65.65h5.71c.36 0 .65-.29.65-.65s-.29-.65-.65-.65zm.84-6c-.36 0-.65.29-.65.65s.29.65.65.65h.7c.36 0 .65-.29.65-.65s-.29-.65-.65-.65zm2.68.65c0-.36.29-.65.65-.65h.7c.36 0 .65.29.65.65s-.29.65-.65.65h-.7c-.36 0-.65-.29-.65-.65m3.98 2.26c-.36 0-.65.29-.65.65s.29.65.65.65h.7c.36 0 .65-.29.65-.65s-.29-.65-.65-.65zm-10.65.65c0-.36.29-.65.65-.65h.7c.36 0 .65.29.65.65s-.29.65-.65.65h-.7c-.36 0-.65-.29-.65-.65m3.99-.65c-.36 0-.65.29-.65.65s.29.65.65.65h.69c.36 0 .65-.29.65-.65s-.29-.65-.65-.65zm2.68.65c0-.36.29-.65.65-.65H14c.36 0 .65.29.65.65s-.29.65-.65.65h-.69c-.36 0-.65-.29-.65-.65"/></svg>
